X: 2
T: Lost Time
Z: Thing
S: https://thesession.org/tunes/15880#setting29869
R: reel
M: 4/4
L: 1/8
K: Amaj
|: cAA/A/A BAA/A/A | cAcd e3d | cAA/A/A BAA/A/A | ABcd eaed  |
cAA/A/A BAA/A/A | cAcd e3d | caec f3e |1 cAA/A/A A3B :|2 cAA/A/A ABce ||
|: dAA/A/A A2eA | A/A/A A2fAA/A/A | A2gA A/A/A A2 | agec Bcef |
dAA/A/A A2eA | A/A/A A2fAA/A/A | A2gA A/A/A A2 |1 agec Bcef :|2 agec Bced |]
